svgs/sharp-light/trademark.svg

<svg xmlns="http://www.w3.org/2000/svg" viewBox="0 0 640 512"><!--! Font Awesome Pro 6.6.0 by @fontawesome - https://fontawesome.com License - https://fontawesome.com/license (Commercial License) Copyright 2024 Fonticons, Inc. --><path d="M0 96l16 0 224 0 16 0 0 32-16 0L16 128 0 128 0 96zM112 400l0-272 32 0 0 272 0 16-32 0 0-16zM288 112l0-16 23.5 0 4.8 5.8L464 279 611.7 101.8l4.8-5.8L640 96l0 16 0 288 0 16-32 0 0-16 0-243.8L476.3 314.2 464 329l-12.3-14.7L320 156.2 320 400l0 16-32 0 0-16 0-288z"/></svg>

<svg xmlns="http://www.w3.org/2000/svg" viewBox="0 0 640 512"><!--! Font Awesome Pro 6.4.0 by @fontawesome - https://fontawesome.com License - https://fontawesome.com/license (Commercial License) Copyright 2023 Fonticons, Inc. --><path d="M0 96H16 240h16v32H240 16 0V96zM112 400V128h32V400v16H112V400zM288 112V96h23.5l4.8 5.8L464 279 611.7 101.8l4.8-5.8H640v16V400v16H608V400 156.2L476.3 314.2 464 329l-12.3-14.7L320 156.2V400v16H288V400 112z"/></svg>
